X: 1
T: Lollipop Man, The
M: 4/4
L: 1/8
R: reel
K: Gmaj
|: BA | GB D2 D2 EF | G2 GF G3 A | B2 GA BAGA | BEED E2 BA |
GB D2 D2 EF | G2 GF G3 d | edef gedc | BAGF G2 :|
|: z2 | d4 gf eg | B2 de d3 B | A3 B cBAG | BEED E2 BA |
GB D2 D2 EF | G2 GF G3 d | edef gedc | BAGF G2 :|
